X: 3
T:Old Frog Dance, Oddington
M:6/8
L:1/8
A:Oddington
P:B(ABC3B)4
K:D
P:A
G|FED AGA|BcB A2A|dcd B<ed|d3  A2||
P:B
G|FED AGA|BcB A2A|dcd B<ed|cBc d2||
P:C
d|cde efe|ecA ABc|ded dcB |BGG G3|
FGA D3 |GAB E3 |FGA Bed |cBc d2||
